F[ERK2
CUT[MUEDE KEHRT DER WANDERER ZURUECK]
REG[Europa, Mitteleuropa, Deutschland, Rheinland]
KEY[E0672A 16  G 4/4]
MEL[-5_-5_  3__.2_1_-7_1_3_  -5___0__
    -5_-7_  2__.1_-7_2_5_4_  3___0__
    1_2_  3__.5_4_3_2_1_  -6___0__
    1_-6_  -5__.1_-7_2_4_.3  1___0__ //] >>
FCT[Liebes - Lied]
